**kern	**kern	**dynam
*part1	*part1	*part1
*staff2	*staff1	*
*I"Piano	*	*
*clefF4	*clefG2	*
*k[b-e-a-d-]	*k[b-e-a-d-]	*
*M2/4	*M2/4	*
=1	=1	=1
(8c	(8a-	pp
=	=	=
4d-	8.b-L	.
.	16dd-K	.
8B-L	8f	.
8e-J)	8gJ)	.
=	=	=
(4c	(8.a-L	.
.	16ccK	.
8A-L	8e-	.
8cJ)	8a-J)	.
=	=	=
(4d-	(8.b-L	.
.	16dd-K	.
8B-L	8f	.
8e-J)	8gJ)	.
=	=	=
(4c	(8.a-L	.
.	16ccK	.
8A-)	8e-)	.
*clefG2	*	*
(8c'	(8e-'J 8ee-	<
=	=	=
8d-'L	8f'L 8ee-	.
8e-'	8g' 8ee-	.
8f'	8a-' 8ee-	.
8g'J)	8b-'J) 8ee-	.
=	=	=
*	*^	*
(8.a-L	4.ee-	(8.ccL	[ >
16b-K	.	16dd-K	.
8a-J)	.	8ccJ)	.
*clefF4	*	*	*
*^	*	*	*
8E-	8c	8ee-	8a-	]
*v	*v	*	*	*
*	*v	*v	*
=	=	=
*-	*-	*-
!!!system-decoration: {(s1,s2)}
